Numix-Light/16/status/indicator-keyboard-Ur-1.svg

<?xml version="1.0" encoding="UTF-8" standalone="no"?>
<svg
   xmlns:dc="http://purl.org/dc/elements/1.1/"
   xmlns:cc="http://creativecommons.org/ns#"
   xmlns:rdf="http://www.w3.org/1999/02/22-rdf-syntax-ns#"
   xmlns:svg="http://www.w3.org/2000/svg"
   xmlns="http://www.w3.org/2000/svg"
   xmlns:sodipodi="http://sodipodi.sourceforge.net/DTD/sodipodi-0.dtd"
   xmlns:inkscape="http://www.inkscape.org/namespaces/inkscape"
   viewBox="0 0 16 16"
   id="svg2"
   version="1.1"
   inkscape:version="0.91 r13725"
   sodipodi:docname="indicator-keyboard-Ur-1.svg">
  <metadata
     id="metadata14">
    <rdf:RDF>
      <cc:Work
         rdf:about="">
        <dc:format>image/svg+xml</dc:format>
        <dc:type
           rdf:resource="http://purl.org/dc/dcmitype/StillImage" />
      </cc:Work>
    </rdf:RDF>
  </metadata>
  <defs
     id="defs12" />
  <sodipodi:namedview
     pagecolor="#ffffff"
     bordercolor="#666666"
     borderopacity="1"
     objecttolerance="10"
     gridtolerance="10"
     guidetolerance="10"
     inkscape:pageopacity="0"
     inkscape:pageshadow="2"
     inkscape:window-width="640"
     inkscape:window-height="480"
     id="namedview10"
     showgrid="false"
     inkscape:zoom="14.75"
     inkscape:cx="8"
     inkscape:cy="8"
     inkscape:window-x="65"
     inkscape:window-y="24"
     inkscape:window-maximized="0"
     inkscape:current-layer="svg2" />
  <path
     style="fill:#353535;fill-opacity:1"
     d="M 1.5996094 0 C 0.71320937 2.9605947e-16 0 0.71320937 0 1.5996094 L 0 14.400391 C 2.9605947e-16 15.286791 0.71320937 16 1.5996094 16 L 14.400391 16 C 15.286791 16 16 15.286791 16 14.400391 L 16 1.5996094 C 16 0.71320937 15.286791 0 14.400391 0 L 1.5996094 0 z M 2.6210938 4.859375 L 3.234375 4.859375 L 3.234375 8.7011719 C 3.234375 9.0431719 3.2735625 9.34175 3.3515625 9.59375 C 3.4355625 9.83975 3.5493594 10.043078 3.6933594 10.205078 C 3.8373594 10.367078 4.0108438 10.486453 4.2148438 10.564453 C 4.4188438 10.642453 4.6464375 10.681641 4.8984375 10.681641 C 5.1504375 10.681641 5.3780312 10.642453 5.5820312 10.564453 C 5.7860312 10.486453 5.9614688 10.367078 6.1054688 10.205078 C 6.2494687 10.043078 6.3595 9.83975 6.4375 9.59375 C 6.5215 9.34175 6.5644531 9.0431719 6.5644531 8.7011719 L 6.5644531 4.859375 L 7.1757812 4.859375 L 7.1757812 8.7832031 C 7.1757812 9.1252031 7.1328281 9.4460937 7.0488281 9.7460938 C 6.9708281 10.040094 6.8421094 10.297531 6.6621094 10.519531 C 6.4821094 10.741531 6.2451719 10.916969 5.9511719 11.042969 C 5.6631719 11.168969 5.3124375 11.230469 4.8984375 11.230469 C 4.4844375 11.230469 4.1299375 11.168969 3.8359375 11.042969 C 3.5479375 10.916969 3.3147656 10.741531 3.1347656 10.519531 C 2.9547656 10.297531 2.8222812 10.040094 2.7382812 9.7460938 C 2.6602813 9.4460938 2.6210938 9.1252031 2.6210938 8.7832031 L 2.6210938 4.859375 z M 10.314453 6.3535156 C 10.506453 6.3535156 10.685516 6.3684375 10.853516 6.3984375 C 11.027516 6.4284375 11.146891 6.4582812 11.212891 6.4882812 L 11.097656 6.9921875 C 11.049656 6.9681875 10.950781 6.9439219 10.800781 6.9199219 C 10.656781 6.8899219 10.464609 6.875 10.224609 6.875 C 9.9726092 6.875 9.7673281 6.8936875 9.6113281 6.9296875 C 9.4613281 6.9656875 9.3624531 6.9955312 9.3144531 7.0195312 L 9.3144531 11.095703 L 8.7304688 11.095703 L 8.7304688 6.6582031 C 8.8804687 6.5922031 9.0875625 6.5269375 9.3515625 6.4609375 C 9.6155625 6.3889375 9.936453 6.3535156 10.314453 6.3535156 z M 13.109375 8.8417969 L 13.378906 8.8417969 L 13.378906 12.896484 L 12.998047 12.896484 L 12.998047 9.421875 C 12.955147 9.468675 12.898325 9.5157063 12.828125 9.5664062 C 12.761825 9.6171063 12.685409 9.66805 12.599609 9.71875 C 12.513809 9.76555 12.425631 9.812575 12.332031 9.859375 C 12.238431 9.902275 12.144381 9.9375437 12.050781 9.9648438 L 11.939453 9.671875 C 12.173453 9.5899751 12.381153 9.4880812 12.564453 9.3632812 C 12.747753 9.2345813 12.929975 9.0601969 13.109375 8.8417969 z "
     id="path4" />
</svg>

<svg xmlns="http://www.w3.org/2000/svg" viewBox="0 0 16 16">
 <path d="m 1.6 0 c -0.886 0 -1.6 0.713 -1.6 1.6 l 0 12.801 c 0 0.886 0.713 1.6 1.6 1.6 l 12.801 0 c 0.886 0 1.6 -0.713 1.6 -1.6 l 0 -12.801 c 0 -0.886 -0.713 -1.6 -1.6 -1.6 l -12.801 0 z m 1.021 4.859 l 0.613 0 l 0 3.842 c 0 0.342 0.039 0.641 0.117 0.893 c 0.084 0.246 0.198 0.449 0.342 0.611 c 0.144 0.162 0.317 0.281 0.521 0.359 c 0.204 0.078 0.432 0.117 0.684 0.117 c 0.252 0 0.48 -0.039 0.684 -0.117 c 0.204 -0.078 0.379 -0.197 0.523 -0.359 c 0.144 -0.162 0.254 -0.365 0.332 -0.611 c 0.084 -0.252 0.127 -0.551 0.127 -0.893 l 0 -3.842 l 0.611 0 l 0 3.924 c 0 0.342 -0.043 0.663 -0.127 0.963 c -0.078 0.294 -0.207 0.551 -0.387 0.773 c -0.18 0.222 -0.417 0.397 -0.711 0.523 c -0.288 0.126 -0.639 0.188 -1.053 0.188 c -0.414 0 -0.769 -0.061 -1.063 -0.188 c -0.288 -0.126 -0.521 -0.301 -0.701 -0.523 c -0.18 -0.222 -0.312 -0.479 -0.396 -0.773 c -0.078 -0.3 -0.117 -0.621 -0.117 -0.963 l 0 -3.924 z m 7.693 1.494 c 0.192 0 0.371 0.015 0.539 0.045 c 0.174 0.03 0.293 0.06 0.359 0.09 l -0.115 0.504 c -0.048 -0.024 -0.147 -0.048 -0.297 -0.072 c -0.144 -0.03 -0.336 -0.045 -0.576 -0.045 c -0.252 0 -0.457 0.019 -0.613 0.055 c -0.15 0.036 -0.249 0.066 -0.297 0.09 l 0 4.076 l -0.584 0 l 0 -4.437 c 0.15 -0.066 0.357 -0.131 0.621 -0.197 c 0.264 -0.072 0.585 -0.107 0.963 -0.107 z m 2.795 2.488 l 0.27 0 l 0 4.055 l -0.381 0 l 0 -3.475 c -0.043 0.047 -0.1 0.094 -0.17 0.145 c -0.066 0.051 -0.143 0.102 -0.229 0.152 c -0.086 0.047 -0.174 0.094 -0.268 0.141 c -0.094 0.043 -0.188 0.078 -0.281 0.105 l -0.111 -0.293 c 0.234 -0.082 0.442 -0.184 0.625 -0.309 c 0.183 -0.129 0.366 -0.303 0.545 -0.521 z" style="fill:#353535;fill-opacity:1"/>
</svg>
